X:54
T: Wiedersehen an der Bahre
N: Q0056J
O: Mitteleuropa, Deutschland (BRD) , Rheinprovinz
R: Ballade, Abschied, Enttaeuschung, Tod, Selbstmord
M: 3/4
L: 1/16
K: F
C2C2A2 | A4G2F2B2A2 | G4z2
G2G2c2 | c4B4G2G2 | A4z2
F2F2f2 | f4e3dd3c | c4z2
A2G2F2 | c4B3GG4 | A4z2

@@@ Tune index: 930
